X:1
T:Ramsgill, CM
T:Ramsgill, CM
T:Charles Legh Naylor (1869-1945)
T:Public Domain Courtesy of the Cyber Hymnal™
C:Charles Legh Naylor (1869-1945)
Z:Public Domain
Z:Courtesy of the Cyber Hymnal™
%%score ( 1 2 ) ( 3 4 )
L:1/8
Q:1/4=107
M:4/4
K:D
V:1 treble 
V:2 treble 
V:3 bass 
V:4 bass 
V:1
 [DF]2 | [FA]3 [FA] [Fd]2 [Fc]2 | [Ge]2 [Gd]2 [Gc]2 [GB]2 | [FA]2 [Ad]2 F2 [=FB]2 | E6 [CE]2 | %5
 [DF]3 [EG] [FA]2 [FA]2 | [GB]3 [Ac] [Bd]2 [EB]2 | [FA]2 [DF]2 [CE]3 D | D6 |] %9
V:2
 x2 | x8 | x8 | x4 =F2 x2 | E6 x2 | x8 | x8 | x7 D | D6 |] %9
V:3
 [D,A,]2 | [D,A,]3 [D,A,] [D,^A,]2 [D,A,]2 | [D,B,]2 [D,B,]2 [D,E]2 [D,C]2 | %3
 [D,D]2 [F,D]2 [B,D]2 [^G,D]2 | (D4 C2) [A,,A,]2 | [D,A,]3 [D,A,] D2 [CD]2 | %6
 [B,D]3 [A,C] [G,B,]2 [G,,G,D]2 | [A,,A,D]2 [A,,A,]2 [A,,G,]3 [D,F,] | [D,F,]6 |] %9
V:4
 x2 | x8 | x8 | x8 | A,6 x2 | x4 D2 x2 | x8 | x8 | x6 |] %9

